X:1
T:[ID 1-62]
T:[ID 1-62]
T:Bezeichnung standardisiert: Tantz Tant
T:Urheber unbekannt Datum in der hier transkribierten schriftlichen Quelle: vermutlich vor 1767
C:Urheber unbekannt
C:Datum in der hier transkribierten schriftlichen Quelle: vermutlich vor 1767
L:1/8
M:2/4
K:D
V:1 treble 
V:1
 df/e/ dc | df A2 | df/e/ dc | db A2 | B/A/G/B/ A2 | GF/E/ FD | BA/G/ A2 | GF/E/ Fd | cd ed/c/ | %9
 d2 D2 :: fd d/e/f/^g/ | ae e2 | fe/f/ d/e/f/^g/ | ae ea | ^gb ea | ^gb ea | ^g/a/b ed | %17
 cB/A/ ^G/A/B/G/ | A2 A,2 | df/e/ dc | dA A2 | BA/B/ cB/c/ | dA A2 | BB/G/ AA/F/ | GF/E/ FD | %25
 B/A/G/B/ A2 | GF/E/ Fd | ^cd ed/c/ | d2 D2 :| %29

